images/village-icon.svg

<svg xmlns="http://www.w3.org/2000/svg" viewBox="0 0 216 216" enable-background="new 0 0 216 216"><style type="text/css">.st0{fill:#FFFFFF;}</style><path class="st0" d="M87.9 73.3c.6-1.9 0-4.1-1.7-5.4l-39.1-29.1c-1.7-1.3-4.1-1.3-5.8 0l-39.4 29.1c-1.7 1.3-2.4 3.5-1.7 5.4.6 2.2 2.6 3.5 4.5 3.5h78.6c2.2 0 4-1.3 4.6-3.5zm-84.2-1c0-.2-.2-.9.4-1.3l39.3-29.2c.2-.2.4-.2.6-.2.2 0 .4 0 .6.2l39.4 29.2c.6.4.4 1.1.4 1.3s-.4.9-1.1.9h-78.5c-.7-.3-.9-.7-1.1-.9zM135.9 91l-24.4-18.1c-1.9-1.5-4.5-1.5-6.3 0l-24.4 17.9v-10.3h-72.6v49.9h29.4v-18.8c0-3.5 3.2-6.5 6.9-6.5 1.9 0 3.7.6 5 1.9 1.3 1.3 1.9 2.8 1.9 4.5v18.8h14.7v47.7h33.5v-21.6c0-4.3 3.9-7.8 8.4-7.8 4.8 0 8.4 3.5 8.4 7.8v21.6h33.7v-47.7h14.7v-18.8c0-3.5 3.2-6.5 6.9-6.5 1.9 0 3.7.6 5 1.9 1.3 1.3 1.9 2.8 1.9 4.5v18.8h29.4v-49.7h-72.1v10.5zm-28.8-15.3c.2-.2.6-.2.9-.2.4 0 .6 0 .9.2l46 34.1c.9.6.6 1.5.6 1.7s-.4 1.1-1.5 1.1h-91.8c-1.1 0-1.5-.9-1.5-1.1s-.2-1.1.6-1.7l45.8-34.1zm39.6 98.7h-26.1v-17.9c0-6.5-5.4-11.7-12.1-11.7s-12.3 5.2-12.3 11.7v17.9h-26.2v-50.3h76.7v50.3zm-7.2-90.3h65.2v42.6h-22v-15.1c0-2.6-1.1-5.2-3.2-7.1-1.9-1.9-4.8-3-7.6-3-5.8 0-10.8 4.5-10.8 10.2v15.1h-11v-6.5h-84.2v6.5h-11v-15.1c0-2.6-1.1-5.2-3.2-7.1-1.9-1.9-4.8-3-7.6-3-5.8 0-10.8 4.5-10.8 10.2v15.1h-21.4v-42.8h65.2v9.5l-17.9 13.4c-1.9 1.3-2.6 3.7-1.9 6 .6 2.2 2.8 3.7 5 3.7h91.7c2.4 0 4.3-1.5 5-3.7.6-2.2 0-4.5-1.9-5.8l-17.7-13.2v-9.9h.1zM213.8 67.9l-39.1-29.2c-1.7-1.3-4.1-1.3-5.8 0l-39.3 29.2c-1.7 1.3-2.4 3.5-1.7 5.4.6 1.9 2.4 3.2 4.5 3.2h78.6c2.2 0 3.9-1.3 4.5-3.2.7-1.9.1-4.1-1.7-5.4zm-1.7 4.4c0 .2-.4.9-1.1.9h-78.6c-.6 0-1.1-.4-1.1-.9 0-.2-.2-.9.4-1.3l39.3-29.2c.2-.2.4-.2.6-.2.2 0 .4 0 .6.2l39.5 29.2c.6.4.4 1 .4 1.3z"/></svg>

<?xml version="1.0" encoding="utf-8"?>
<!-- Generator: Adobe Illustrator 18.1.1, SVG Export Plug-In . SVG Version: 6.00 Build 0)  -->
<!DOCTYPE svg PUBLIC "-//W3C//DTD SVG 1.1//EN" "http://www.w3.org/Graphics/SVG/1.1/DTD/svg11.dtd">
<svg version="1.1" id="Layer_2" xmlns="http://www.w3.org/2000/svg" xmlns:xlink="http://www.w3.org/1999/xlink" x="0px" y="0px"
	 viewBox="0 0 216 216" style="enable-background:new 0 0 216 216;" xml:space="preserve">
<style type="text/css">
	.st0{fill:#FFFFFF;}
</style>
<g>
	<path class="st0" d="M87.9,73.3c0.6-1.9,0-4.1-1.7-5.4L47.1,38.8c-1.7-1.3-4.1-1.3-5.8,0L1.9,67.9c-1.7,1.3-2.4,3.5-1.7,5.4
		c0.6,2.2,2.6,3.5,4.5,3.5h78.6C85.5,76.8,87.3,75.5,87.9,73.3z M3.7,72.3c0-0.2-0.2-0.9,0.4-1.3l39.3-29.2c0.2-0.2,0.4-0.2,0.6-0.2
		c0.2,0,0.4,0,0.6,0.2L84,71c0.6,0.4,0.4,1.1,0.4,1.3s-0.4,0.9-1.1,0.9H4.8C4.1,72.9,3.9,72.5,3.7,72.3z"/>
	<path class="st0" d="M135.9,91l-24.4-18.1c-1.9-1.5-4.5-1.5-6.3,0L80.8,90.8V80.5H8.2v49.9h29.4v-18.8c0-3.5,3.2-6.5,6.9-6.5
		c1.9,0,3.7,0.6,5,1.9c1.3,1.3,1.9,2.8,1.9,4.5v18.8h14.7v47.7h33.5v-21.6c0-4.3,3.9-7.8,8.4-7.8c4.8,0,8.4,3.5,8.4,7.8v21.6h33.7
		v-47.7h14.7v-18.8c0-3.5,3.2-6.5,6.9-6.5c1.9,0,3.7,0.6,5,1.9c1.3,1.3,1.9,2.8,1.9,4.5v18.8H208V80.5h-72.1V91z M107.1,75.7
		c0.2-0.2,0.6-0.2,0.9-0.2c0.4,0,0.6,0,0.9,0.2l46,34.1c0.9,0.6,0.6,1.5,0.6,1.7s-0.4,1.1-1.5,1.1H62.2c-1.1,0-1.5-0.9-1.5-1.1
		s-0.2-1.1,0.6-1.7L107.1,75.7z M146.7,174.4h-26.1v-17.9c0-6.5-5.4-11.7-12.1-11.7s-12.3,5.2-12.3,11.7v17.9H70v-50.3h76.7V174.4z
		 M139.5,84.1h65.2v42.6h-22v-15.1c0-2.6-1.1-5.2-3.2-7.1c-1.9-1.9-4.8-3-7.6-3c-5.8,0-10.8,4.5-10.8,10.2v15.1h-11v-6.5H65.9v6.5
		h-11v-15.1c0-2.6-1.1-5.2-3.2-7.1c-1.9-1.9-4.8-3-7.6-3c-5.8,0-10.8,4.5-10.8,10.2v15.1H11.9V84.1h65.2v9.5L59.2,107
		c-1.9,1.3-2.6,3.7-1.9,6c0.6,2.2,2.8,3.7,5,3.7H154c2.4,0,4.3-1.5,5-3.7c0.6-2.2,0-4.5-1.9-5.8l-17.7-13.2v-9.9H139.5z"/>
	<path class="st0" d="M213.8,67.9l-39.1-29.2c-1.7-1.3-4.1-1.3-5.8,0l-39.3,29.2c-1.7,1.3-2.4,3.5-1.7,5.4c0.6,1.9,2.4,3.2,4.5,3.2
		H211c2.2,0,3.9-1.3,4.5-3.2C216.2,71.4,215.6,69.2,213.8,67.9z M212.1,72.3c0,0.2-0.4,0.9-1.1,0.9h-78.6c-0.6,0-1.1-0.4-1.1-0.9
		c0-0.2-0.2-0.9,0.4-1.3l39.3-29.2c0.2-0.2,0.4-0.2,0.6-0.2c0.2,0,0.4,0,0.6,0.2L211.7,71C212.3,71.4,212.1,72,212.1,72.3z"/>
</g>
</svg>
